newicons/ais_play.svg

<?xml version="1.0" encoding="UTF-8"?><svg id="a" xmlns="http://www.w3.org/2000/svg" viewBox="0 0 48 48"><defs><style>.b{fill:none;stroke:#fff;stroke-linecap:round;stroke-linejoin:round;}</style></defs><path class="b" d="M8.7581,42.1748c-1.4946-.8623-1.2955-2.8441-1.2955-2.8441V8.6689s-.2001-1.9808,1.2955-2.8431,3.1942.2601,3.1942.2601l26.8083,15.464s1.7857.8163,1.7857,2.4489-1.7857,2.4509-1.7857,2.4509l-26.8073,15.464s-1.6987,1.1234-3.1952.2601v.001ZM30.3634,27.2981v-3.2743M32.6153,20.7485l-2.2519,3.2753-2.2519-3.2753M22.6424,27.2981l2.2519-6.5495,2.2529,6.5495M17.2664,20.7485v6.5495h3.3993M10.7969,27.2981v-6.5485h2.2259c1.2585,0,2.2789.9854,2.2789,2.1998s-1.0204,2.1998-2.2789,2.1998h-2.2259"/></svg>

<svg xmlns="http://www.w3.org/2000/svg" xml:space="preserve" width="48" height="48"><path fill="none" stroke="#fff" stroke-linecap="round" stroke-linejoin="round" d="M8.765 42.167c-1.494-.862-1.295-2.843-1.295-2.843V8.674s-.2-1.98 1.295-2.842 3.193.26 3.193.26L38.756 21.55s1.785.816 1.785 2.448-1.785 2.45-1.785 2.45L11.959 41.906s-1.698 1.123-3.194.26zm21.597-14.871v-3.273m2.251-3.274-2.251 3.274-2.251-3.274m-5.467 6.547 2.251-6.547 2.252 6.547m-9.877-6.547v6.547h3.398m-9.865 0V20.75h2.225c1.258 0 2.278.985 2.278 2.199s-1.02 2.199-2.278 2.199h-2.225" style="-inkscape-stroke:none"/></svg>
